X:221 
T:Tumble the Tailor  
F:file ID: cre.4/221tumb_t
S:BPC
B:CRE4.013 (Leag an TÃÂÃÂÃÂÃÂ¡illiÃÂÃÂÃÂÃÂºr)
L:1/8
Q:160
M:6/8
R:jig
K:G
"BB setting"
e|gBB BAG|Eee F2f|gBB BAG|eag fed|
gBB BAG|Eee F2f|gbb bag|fef g2:|
|:D|GBd gfg|edc BcA|GBd gfg|eaf g2a|
bgb afd|geg fdB|cde ABc|1 EAG FE:|\
[2 EAF G3 |]

%%%

